X:141
T:Quickstep. Unnamed No2. EHo.141
A:England; East Yorkshire
M:6/8
L:1/8
Q:3/8=100
B:Edward Holmes MS, c1846, Beverley, Yorkshire.
N:NB.May be a bar missing.
C:Hill
Z:Village Music Project 2018, Jake Wade. Beverley, East Yorks
K:C
"_p"g | g2g c'2b | (a3g2)g | {g/}fef d2g | {g/}(g3e2)g |
g2g c'2b | (a3g2)g | "_fp"g>af e>fd | "_f"[Ec][Ec][Ec][E2c2]!fine! :|
"_p"G | DDDD2"tr"E | F2F D2D | E2E "tr"EGF | "tr"(ED).D D2G |
[G,E][G,E][G,E][G,2E2] G |"NB" DEF EG^F | (A3"Da Capo"G2) |]

